X: 39184
T: Swinging In The Lane
R: reel
M: 4/4
K: Dmajor
B|AFAB AFDF|AFAd ~f3a|afef dB~B2|dBAF EFDF|
~A3B AFDF|AFAd f2fa|afef dB~B2|e/f/g fe d2z:|e||
fded BAFA|dcdf ~a3f|gefd edBc|d2AF EFDF|
~A3B AFDF|AFAd ~f3a|afef dB~B2|egfe d2ze|
~f2ed BAFA|df~f2 ~a3b|gfed edBc|dBAF EFDF|
~A3B AFDF|AFAd ~f3a|afef dB~B2|egfe d2z|

